X: 71
T:Andy McGann's
M:C|
L:1/8
S:Brendan Mulvihill
R:reel
Z:Devin McCabe
K:C
gf|:eccB cGEG|FEDC B,DGF|E2GE FAdc|1B~g3 ag^fg:|2B/2c/2d gf eccB||
!c2gc ecgc-|~c2ag ^fgdB|c2Gc EcGc|B~G3 BcdB|
!c2gc ecgc-|~c2ag ^fgdB|c~g3 e~g3|ag^fa ga=fg||
